X: 958
T: Hak Taalâ Seni Bize
C: Ali Ufkî
O: Turkey
F: http://compmusic.upf.edu/node/140
N: ussak--ilahi--sofyan--hak_taala--ali_ufki
N: makam= ussak
N: form= ilahi
N: usul= sofyan = 4/4
M: 4/4
L: 1/16
K: C _2/4B   
Q: 1/4=102
%%MIDI tuningsystem comma53
A4 B4 B2A2 G2A2  | B8 c2B2 A2G2  | A4 A2d2 d2c2 c2B2  | \
w:  Hak  ta a  |  lâ   |  se ni  *  bi  | 
B4 A4 A4 A4  | 
w:  ze  *  câ nım   | 
B4 B2A2 B4 c4  | d8 e8  | c4 d4 d2c2 B2c2  | \
w:  nûr_ ı  *  guf  |  ran   |  ey *  le  | 
B4 A4 A4 A4  | A4 B4 B2A2 G2A2  | 
w:  miş    |  Hak  ta a  | 
B8 c2B2 A2G2  | A4 A2d2 d2c2 c2B2  | \
w:  lâ   |  se ni  *  bi  | 
B4 A4 A4 A4  | B4 B2A2 B4 c4  | 
w:  ze  *  câ nım   |  nûr_ ı  *  guf  | 
d8 e8  | c4 d4 d2c2 B2c2  | B4 A4 A4 A4  | \
w:  ran   |  ey *  le  |  miş    | 
A4 g4 g2f2 e2d2  | e8 c4 d4  | 
w:  Üm me ti  |  ne  Mus ta  | 
d2c2 B2c2 B4 A4  | A4 A4 A4 g4  | g2f2 e2d2 e8  | \
w:  fa *  *  *  nın   |  se ni  in  |  san   | 
c4 d4 d2c2 B2c2  | 
w:  ey *  le  | 
B4 A4 A4 B4  | B2A2 G2A2 B8  | c2B2 A2G2 A4 A2d2  | \
w:  miş   *  Mer ha  |  ba  *  *  *  hey   |  *  *  *  *  şehr_ i   | 
d2c2 c2B2 B4 A4  | 
w:  rah *  *  *  met   | 
A4 A4 B4 B2A2  | B4 c4 d8  | e8 c4 d4  | \
w:  câ nım  mer ha  |  ba  *  hey   |  *  şehr_  | 
d2c2 B2c2 B4 A4  | A4 A4 z8  | |


